assets/1. F-P/Oden/Color/Oden-color.svg

<svg width="100%" height="100%" viewBox="0 0 32 32" fill="none" xmlns="http://www.w3.org/2000/svg">
<path d="M28 27.94L3 3" stroke="url(#paint0_linear_18_29625)" stroke-width="3" stroke-miterlimit="10" stroke-linecap="round" stroke-linejoin="round"/>
<path d="M3.50999 7.34999L5.39999 14.41C6.01999 16.74 8.93999 17.52 10.64 15.81L15.81 10.64C17.52 8.92999 16.73 6.01999 14.41 5.39999L7.34999 3.50999C5.01999 2.88999 2.88999 5.01999 3.50999 7.34999Z" fill="url(#paint1_linear_18_29625)"/>
<path d="M3.50999 7.34999L5.39999 14.41C6.01999 16.74 8.93999 17.52 10.64 15.81L15.81 10.64C17.52 8.92999 16.73 6.01999 14.41 5.39999L7.34999 3.50999C5.01999 2.88999 2.88999 5.01999 3.50999 7.34999Z" fill="url(#paint2_radial_18_29625)"/>
<g filter="url(#filter0_f_18_29625)">
<path d="M5.55035 8.19566L6.85213 13.0584C7.27917 14.6632 9.29039 15.2005 10.4613 14.0227L14.0223 10.4617C15.2001 9.28393 14.6559 7.2796 13.058 6.85256L8.19524 5.55078C6.5904 5.12374 5.12331 6.59082 5.55035 8.19566Z" fill="#4F3D81"/>
</g>
<g filter="url(#filter1_f_18_29625)">
<path d="M15.875 10.125C13.1875 10.125 9.8125 12.625 9.8125 16.0312C11.9688 16.9688 14.625 17.4375 15.875 16.0312C17.125 14.625 18.125 12.2812 15.875 10.125Z" fill="#30143D"/>
</g>
<path d="M16.78 23.63C20.5631 23.63 23.63 20.5631 23.63 16.78C23.63 12.9968 20.5631 9.92999 16.78 9.92999C12.9968 9.92999 9.92999 12.9968 9.92999 16.78C9.92999 20.5631 12.9968 23.63 16.78 23.63Z" fill="url(#paint3_radial_18_29625)"/>
<path d="M16.78 23.63C20.5631 23.63 23.63 20.5631 23.63 16.78C23.63 12.9968 20.5631 9.92999 16.78 9.92999C12.9968 9.92999 9.92999 12.9968 9.92999 16.78C9.92999 20.5631 12.9968 23.63 16.78 23.63Z" fill="url(#paint4_radial_18_29625)"/>
<g filter="url(#filter2_f_18_29625)">
<path d="M16.5725 22.9925L23.0225 16.5425C24.5 16.8438 24.7187 19.9063 22.8125 21.8125C19.7656 24.8594 16.7656 24.375 16.5725 22.9925Z" fill="#C26454"/>
</g>
<path d="M28.4 21.95L21.95 28.4C20.52 29.83 18.2 29.83 16.77 28.4C15.34 26.97 15.34 24.65 16.77 23.22L23.22 16.77C24.65 15.34 26.97 15.34 28.4 16.77C29.83 18.2 29.83 20.52 28.4 21.95Z" fill="url(#paint5_linear_18_29625)"/>
<path d="M28.4 21.95L21.95 28.4C20.52 29.83 18.2 29.83 16.77 28.4C15.34 26.97 15.34 24.65 16.77 23.22L23.22 16.77C24.65 15.34 26.97 15.34 28.4 16.77C29.83 18.2 29.83 20.52 28.4 21.95Z" fill="url(#paint6_radial_18_29625)"/>
<path d="M28.4 21.95L21.95 28.4C20.52 29.83 18.2 29.83 16.77 28.4C15.34 26.97 15.34 24.65 16.77 23.22L23.22 16.77C24.65 15.34 26.97 15.34 28.4 16.77C29.83 18.2 29.83 20.52 28.4 21.95Z" fill="url(#paint7_radial_18_29625)"/>
<path d="M28.4 21.95L21.95 28.4C20.52 29.83 18.2 29.83 16.77 28.4C15.34 26.97 15.34 24.65 16.77 23.22L23.22 16.77C24.65 15.34 26.97 15.34 28.4 16.77C29.83 18.2 29.83 20.52 28.4 21.95Z" fill="url(#paint8_radial_18_29625)"/>
<path d="M28.4 21.95L21.95 28.4C20.52 29.83 18.2 29.83 16.77 28.4C15.34 26.97 15.34 24.65 16.77 23.22L23.22 16.77C24.65 15.34 26.97 15.34 28.4 16.77C29.83 18.2 29.83 20.52 28.4 21.95Z" fill="url(#paint9_radial_18_29625)"/>
<path d="M28 27.94L24.6 24.55" stroke="url(#paint10_linear_18_29625)" stroke-width="3" stroke-miterlimit="10" stroke-linecap="round" stroke-linejoin="round"/>
<g filter="url(#filter3_f_18_29625)">
<path d="M5.875 5.31248C5.91667 5.20831 6.175 5.06248 6.875 5.31248C7.575 5.56248 12.25 6.91666 14.5 7.5625" stroke="#8C7FCF" stroke-width="0.5" stroke-linecap="round"/>
</g>
<g filter="url(#filter4_f_18_29625)">
<ellipse cx="15" cy="7.56249" rx="1" ry="1.21875" transform="rotate(-17.4027 15 7.56249)" fill="#6E65A3"/>
</g>
<defs>
<filter id="filter0_f_18_29625" x="3.9754" y="3.97583" width="12.1808" height="12.1826" filterUnits="userSpaceOnUse" color-interpolation-filters="sRGB">
<feFlood flood-opacity="0" result="BackgroundImageFix"/>
<feBlend mode="normal" in="SourceGraphic" in2="BackgroundImageFix" result="shape"/>
<feGaussianBlur stdDeviation="0.75" result="effect1_foregroundBlur_18_29625"/>
</filter>
<filter id="filter1_f_18_29625" x="8.8125" y="9.125" width="9.40076" height="8.79376" filterUnits="userSpaceOnUse" color-interpolation-filters="sRGB">
<feFlood flood-opacity="0" result="BackgroundImageFix"/>
<feBlend mode="normal" in="SourceGraphic" in2="BackgroundImageFix" result="shape"/>
<feGaussianBlur stdDeviation="0.5" result="effect1_foregroundBlur_18_29625"/>
</filter>
<filter id="filter2_f_18_29625" x="15.5725" y="15.5425" width="9.61389" height="9.53143" filterUnits="userSpaceOnUse" color-interpolation-filters="sRGB">
<feFlood flood-opacity="0" result="BackgroundImageFix"/>
<feBlend mode="normal" in="SourceGraphic" in2="BackgroundImageFix" result="shape"/>
<feGaussianBlur stdDeviation="0.5" result="effect1_foregroundBlur_18_29625"/>
</filter>
<filter id="filter3_f_18_29625" x="3.62494" y="2.92444" width="13.1251" height="6.88812" filterUnits="userSpaceOnUse" color-interpolation-filters="sRGB">
<feFlood flood-opacity="0" result="BackgroundImageFix"/>
<feBlend mode="normal" in="SourceGraphic" in2="BackgroundImageFix" result="shape"/>
<feGaussianBlur stdDeviation="1" result="effect1_foregroundBlur_18_29625"/>
</filter>
<filter id="filter4_f_18_29625" x="12.4783" y="4.86139" width="5.04352" height="5.40222" filterUnits="userSpaceOnUse" color-interpolation-filters="sRGB">
<feFlood flood-opacity="0" result="BackgroundImageFix"/>
<feBlend mode="normal" in="SourceGraphic" in2="BackgroundImageFix" result="shape"/>
<feGaussianBlur stdDeviation="0.75" result="effect1_foregroundBlur_18_29625"/>
</filter>
<linearGradient id="paint0_linear_18_29625" x1="3" y1="5.0625" x2="5.375" y2="2.6875" gradientUnits="userSpaceOnUse">
<stop stop-color="#A96E55"/>
<stop offset="0.5" stop-color="#DBA579"/>
<stop offset="0.9944" stop-color="#FFD59E"/>
</linearGradient>
<linearGradient id="paint1_linear_18_29625" x1="3.875" y1="11.125" x2="16.25" y2="6.125" gradientUnits="userSpaceOnUse">
<stop offset="0.0157881" stop-color="#4A3E60"/>
<stop offset="0.183384" stop-color="#422B69"/>
<stop offset="0.585431" stop-color="#595295"/>
</linearGradient>
<radialGradient id="paint2_radial_18_29625" cx="0" cy="0" r="1" gradientUnits="userSpaceOnUse" gradientTransform="translate(8 17.0625) rotate(102.529) scale(5.18599 5.18499)">
<stop stop-color="#4C2E6E"/>
<stop offset="1" stop-color="#503372" stop-opacity="0"/>
</radialGradient>
<radialGradient id="paint3_radial_18_29625" cx="0" cy="0" r="1" gradientUnits="userSpaceOnUse" gradientTransform="translate(21.4375 13.125) rotate(163.142) scale(10.7756)">
<stop offset="0.109003" stop-color="#FFCEB9"/>
<stop offset="0.618671" stop-color="#DD9490"/>
<stop offset="1" stop-color="#A06866"/>
</radialGradient>
<radialGradient id="paint4_radial_18_29625" cx="0" cy="0" r="1" gradientUnits="userSpaceOnUse" gradientTransform="translate(13.625 23) rotate(106.243) scale(8.2675)">
<stop stop-color="#C56E96"/>
<stop offset="1" stop-color="#F1A1C4" stop-opacity="0"/>
</radialGradient>
<linearGradient id="paint5_linear_18_29625" x1="20.0625" y1="19.6875" x2="25.4687" y2="25.0937" gradientUnits="userSpaceOnUse">
<stop offset="0.00558659" stop-color="#D1AE93"/>
<stop offset="0.219653" stop-color="#DEC6B5"/>
<stop offset="0.549133" stop-color="#F5D3C9"/>
<stop offset="0.870901" stop-color="#F9D9CC"/>
<stop offset="1" stop-color="#E2C4C2"/>
</linearGradient>
<radialGradient id="paint6_radial_18_29625" cx="0" cy="0" r="1" gradientUnits="userSpaceOnUse" gradientTransform="translate(27.9375 18) rotate(73.0339) scale(3.85529)">
<stop stop-color="#FFFFEE"/>
<stop offset="0.527145" stop-color="#FCEED2"/>
<stop offset="1" stop-color="#F5E2CD" stop-opacity="0"/>
</radialGradient>
<radialGradient id="paint7_radial_18_29625" cx="0" cy="0" r="1" gradientUnits="userSpaceOnUse" gradientTransform="translate(18.1875 29.875) rotate(16.4222) scale(6.19002 4.41327)">
<stop stop-color="#D998B6"/>
<stop offset="1" stop-color="#DD9BB2" stop-opacity="0"/>
</radialGradient>
<radialGradient id="paint8_radial_18_29625" cx="0" cy="0" r="1" gradientUnits="userSpaceOnUse" gradientTransform="translate(23.8125 26.6875) rotate(105.888) scale(4.48379 2.13703)">
<stop offset="0.278646" stop-color="#D597A2"/>
<stop offset="1" stop-color="#D798A3" stop-opacity="0"/>
</radialGradient>
<radialGradient id="paint9_radial_18_29625" cx="0" cy="0" r="1" gradientUnits="userSpaceOnUse" gradientTransform="translate(15.6975 24.25) rotate(104.251) scale(6.64189 3.85184)">
<stop stop-color="#BC997F"/>
<stop offset="1" stop-color="#D5AF96" stop-opacity="0"/>
</radialGradient>
<linearGradient id="paint10_linear_18_29625" x1="27.3635" y1="25.1792" x2="25.2379" y2="27.3048" gradientUnits="userSpaceOnUse">
<stop stop-color="#FFD6A1"/>
<stop offset="0.251098" stop-color="#FFD6A1"/>
<stop offset="0.574021" stop-color="#EAAA86"/>
<stop offset="0.9944" stop-color="#C1706A"/>
</linearGradient>
</defs>
</svg>

<svg width="100%" height="100%" viewBox="0 0 32 32" xmlns="http://www.w3.org/2000/svg"><path stroke="url(#a)" stroke-linecap="round" stroke-linejoin="round" stroke-miterlimit="10" stroke-width="3" d="M28 27.94 3 3"/><path fill="url(#b)" d="m3.51 7.35 1.89 7.06c.62 2.33 3.54 3.11 5.24 1.4l5.17-5.17c1.71-1.71.92-4.62-1.4-5.24L7.35 3.51c-2.33-.62-4.46 1.51-3.84 3.84"/><path fill="url(#c)" d="m3.51 7.35 1.89 7.06c.62 2.33 3.54 3.11 5.24 1.4l5.17-5.17c1.71-1.71.92-4.62-1.4-5.24L7.35 3.51c-2.33-.62-4.46 1.51-3.84 3.84"/><g filter="url(#d)"><path fill="#4F3D81" d="m5.55 8.196 1.302 4.862c.427 1.605 2.438 2.143 3.61.965l3.56-3.561c1.178-1.178.634-3.182-.964-3.61L8.195 5.552C6.59 5.124 5.123 6.59 5.55 8.196"/></g><g filter="url(#e)"><path fill="#30143D" d="M15.875 10.125c-2.687 0-6.062 2.5-6.062 5.906 2.156.938 4.812 1.407 6.062 0 1.25-1.406 2.25-3.75 0-5.906"/></g><path fill="url(#f)" d="M16.78 23.63a6.85 6.85 0 1 0 0-13.7 6.85 6.85 0 0 0 0 13.7"/><path fill="url(#g)" d="M16.78 23.63a6.85 6.85 0 1 0 0-13.7 6.85 6.85 0 0 0 0 13.7"/><g filter="url(#h)"><path fill="#C26454" d="m16.573 22.993 6.45-6.45c1.477.3 1.696 3.363-.21 5.27-3.047 3.046-6.047 2.562-6.24 1.18"/></g><path fill="url(#i)" d="m28.4 21.95-6.45 6.45a3.664 3.664 0 0 1-5.18-5.18l6.45-6.45a3.664 3.664 0 0 1 5.18 5.18"/><path fill="url(#j)" d="m28.4 21.95-6.45 6.45a3.664 3.664 0 0 1-5.18-5.18l6.45-6.45a3.664 3.664 0 0 1 5.18 5.18"/><path fill="url(#k)" d="m28.4 21.95-6.45 6.45a3.664 3.664 0 0 1-5.18-5.18l6.45-6.45a3.664 3.664 0 0 1 5.18 5.18"/><path fill="url(#l)" d="m28.4 21.95-6.45 6.45a3.664 3.664 0 0 1-5.18-5.18l6.45-6.45a3.664 3.664 0 0 1 5.18 5.18"/><path fill="url(#m)" d="m28.4 21.95-6.45 6.45a3.664 3.664 0 0 1-5.18-5.18l6.45-6.45a3.664 3.664 0 0 1 5.18 5.18"/><path stroke="url(#n)" stroke-linecap="round" stroke-linejoin="round" stroke-miterlimit="10" stroke-width="3" d="m28 27.94-3.4-3.39"/><g filter="url(#o)"><path stroke="#8C7FCF" stroke-linecap="round" stroke-width=".5" d="M5.875 5.312c.042-.104.3-.25 1 0s5.375 1.605 7.625 2.25"/></g><g filter="url(#p)"><ellipse cx="15" cy="7.562" fill="#6E65A3" rx="1" ry="1.219" transform="rotate(-17.403 15 7.562)"/></g><defs><radialGradient id="c" cx="0" cy="0" r="1" gradientTransform="matrix(-1.12502 5.0625 -5.06152 -1.1248 8 17.063)" gradientUnits="userSpaceOnUse"><stop stop-color="#4C2E6E"/><stop offset="1" stop-color="#503372" stop-opacity="0"/></radialGradient><radialGradient id="f" cx="0" cy="0" r="1" gradientTransform="rotate(163.142 9.746 8.15)scale(10.7756)" gradientUnits="userSpaceOnUse"><stop offset=".109" stop-color="#FFCEB9"/><stop offset=".619" stop-color="#DD9490"/><stop offset="1" stop-color="#A06866"/></radialGradient><radialGradient id="g" cx="0" cy="0" r="1" gradientTransform="rotate(106.243 -1.815 16.611)scale(8.2675)" gradientUnits="userSpaceOnUse"><stop stop-color="#C56E96"/><stop offset="1" stop-color="#F1A1C4" stop-opacity="0"/></radialGradient><radialGradient id="j" cx="0" cy="0" r="1" gradientTransform="rotate(73.034 1.813 27.866)scale(3.85529)" gradientUnits="userSpaceOnUse"><stop stop-color="#FFE"/><stop offset=".527" stop-color="#FCEED2"/><stop offset="1" stop-color="#F5E2CD" stop-opacity="0"/></radialGradient><radialGradient id="k" cx="0" cy="0" r="1" gradientTransform="matrix(5.9375 1.75 -1.24769 4.23323 18.188 29.875)" gradientUnits="userSpaceOnUse"><stop stop-color="#D998B6"/><stop offset="1" stop-color="#DD9BB2" stop-opacity="0"/></radialGradient><radialGradient id="l" cx="0" cy="0" r="1" gradientTransform="rotate(105.888 1.83 22.334)scale(4.48379 2.13703)" gradientUnits="userSpaceOnUse"><stop offset=".279" stop-color="#D597A2"/><stop offset="1" stop-color="#D798A3" stop-opacity="0"/></radialGradient><radialGradient id="m" cx="0" cy="0" r="1" gradientTransform="matrix(-1.63504 6.4375 -3.7333 -.9482 15.697 24.25)" gradientUnits="userSpaceOnUse"><stop stop-color="#BC997F"/><stop offset="1" stop-color="#D5AF96" stop-opacity="0"/></radialGradient><filter id="d" width="12.181" height="12.183" x="3.975" y="3.976" color-interpolation-filters="sRGB" filterUnits="userSpaceOnUse"><feFlood flood-opacity="0" result="BackgroundImageFix"/><feBlend in="SourceGraphic" in2="BackgroundImageFix" result="shape"/><feGaussianBlur result="effect1_foregroundBlur_18_29625" stdDeviation=".75"/></filter><filter id="e" width="9.401" height="8.794" x="8.813" y="9.125" color-interpolation-filters="sRGB" filterUnits="userSpaceOnUse"><feFlood flood-opacity="0" result="BackgroundImageFix"/><feBlend in="SourceGraphic" in2="BackgroundImageFix" result="shape"/><feGaussianBlur result="effect1_foregroundBlur_18_29625" stdDeviation=".5"/></filter><filter id="h" width="9.614" height="9.531" x="15.572" y="15.543" color-interpolation-filters="sRGB" filterUnits="userSpaceOnUse"><feFlood flood-opacity="0" result="BackgroundImageFix"/><feBlend in="SourceGraphic" in2="BackgroundImageFix" result="shape"/><feGaussianBlur result="effect1_foregroundBlur_18_29625" stdDeviation=".5"/></filter><filter id="o" width="13.125" height="6.888" x="3.625" y="2.924" color-interpolation-filters="sRGB" filterUnits="userSpaceOnUse"><feFlood flood-opacity="0" result="BackgroundImageFix"/><feBlend in="SourceGraphic" in2="BackgroundImageFix" result="shape"/><feGaussianBlur result="effect1_foregroundBlur_18_29625" stdDeviation="1"/></filter><filter id="p" width="5.044" height="5.402" x="12.478" y="4.861" color-interpolation-filters="sRGB" filterUnits="userSpaceOnUse"><feFlood flood-opacity="0" result="BackgroundImageFix"/><feBlend in="SourceGraphic" in2="BackgroundImageFix" result="shape"/><feGaussianBlur result="effect1_foregroundBlur_18_29625" stdDeviation=".75"/></filter><linearGradient id="a" x1="3" x2="5.375" y1="5.063" y2="2.688" gradientUnits="userSpaceOnUse"><stop stop-color="#A96E55"/><stop offset=".5" stop-color="#DBA579"/><stop offset=".994" stop-color="#FFD59E"/></linearGradient><linearGradient id="b" x1="3.875" x2="16.25" y1="11.125" y2="6.125" gradientUnits="userSpaceOnUse"><stop offset=".016" stop-color="#4A3E60"/><stop offset=".183" stop-color="#422B69"/><stop offset=".585" stop-color="#595295"/></linearGradient><linearGradient id="i" x1="20.063" x2="25.469" y1="19.688" y2="25.094" gradientUnits="userSpaceOnUse"><stop offset=".006" stop-color="#D1AE93"/><stop offset=".22" stop-color="#DEC6B5"/><stop offset=".549" stop-color="#F5D3C9"/><stop offset=".871" stop-color="#F9D9CC"/><stop offset="1" stop-color="#E2C4C2"/></linearGradient><linearGradient id="n" x1="27.363" x2="25.238" y1="25.179" y2="27.305" gradientUnits="userSpaceOnUse"><stop stop-color="#FFD6A1"/><stop offset=".251" stop-color="#FFD6A1"/><stop offset=".574" stop-color="#EAAA86"/><stop offset=".994" stop-color="#C1706A"/></linearGradient></defs></svg>
